svg/luggage.svg

<svg xmlns="http://www.w3.org/2000/svg" viewBox="0 0 64 58" enable-background="new 0 0 64 58"><style type="text/css">.st0{fill:#343434;}</style><title>luggage</title><desc>Created with Sketch.</desc><path class="st0" d="M50 10h-8v-3c0-3.9-3.1-7-7-7h-6c-3.9 0-7 3.1-7 7v3h-8c-7.7 0-14 6.3-14 14v20c0 7.7 6.3 14 14 14h36c7.7 0 14-6.3 14-14v-20c0-7.7-6.3-14-14-14zm-24-3c0-1.7 1.3-3 3-3h6c1.7 0 3 1.3 3 3v3h-12v-3zm16 7h4v40h-28v-40h24zm-38 30v-20c0-5.5 4.5-10 10-10v40c-5.5 0-10-4.5-10-10zm56 0c0 5.5-4.5 10-10 10v-40c5.5 0 10 4.5 10 10v20z"/></svg>

<svg xmlns="http://www.w3.org/2000/svg" viewBox="0 0 64 58"><path d="M50 10h-8V7c0-3.9-3.1-7-7-7h-6c-3.9 0-7 3.1-7 7v3h-8C6.3 10 0 16.3 0 24v20c0 7.7 6.3 14 14 14h36c7.7 0 14-6.3 14-14V24c0-7.7-6.3-14-14-14zM26 7c0-1.7 1.3-3 3-3h6c1.7 0 3 1.3 3 3v3H26V7zm16 7h4v40H18V14h24zM4 44V24c0-5.5 4.5-10 10-10v40C8.5 54 4 49.5 4 44zm56 0c0 5.5-4.5 10-10 10V14c5.5 0 10 4.5 10 10v20z" fill="#343434"/></svg>
